X:163
T: SCHLAF, KINDEIN SCHLAF, DER VATER HUET'T DIE SCHAF'
N: Z0162
O: Europa, Mitteleuropa, Deutschland
R: Kinder -, Wiegen - Lied
M: 2/4
L: 1/16
K: C
 |  |  | E4DCDE | C4z2
C2 | E2E2DCDE | C4z2
G,2 | C2C2D2D2 | E3DC2
G,2 | D2D2E2E2 | F3ED2z2 |
G4E2D2 | C4z4

@@@ Tune index: 9921
